giving/merge-circle-outline.svg

<svg xmlns="http://www.w3.org/2000/svg" viewBox="0 0 16 16"><defs><style>.cls-1{fill:#010101}</style></defs><title>merge-circle-outline</title><g id="Layer_1" data-name="Layer 1"><path class="cls-1" d="M8 .139a7.824 7.824 0 1 0 7.824 7.824A7.833 7.833 0 0 0 8 .139zM8 15.2a7.235 7.235 0 1 1 7.235-7.235A7.243 7.243 0 0 1 8 15.2z"/><path class="cls-1" d="M9.237 8.359a.375.375 0 0 1-.315-.172L7.251 5.6H5.977a.375.375 0 0 1 0-.75h1.478a.374.374 0 0 1 .315.172l1.781 2.759a.375.375 0 0 1-.314.578z"/><path class="cls-1" d="M7.455 11.116H5.977a.375.375 0 1 1 0-.75h1.274l1.67-2.585a.375.375 0 1 1 .63.406L7.77 10.944a.374.374 0 0 1-.315.172z"/><path class="cls-1" d="M10.723 8.464H9.236a.48.48 0 0 1 0-.961h1.487a.48.48 0 1 1 0 .961z"/><path class="cls-1" d="M10.5 9.312V6.674a.172.172 0 0 1 .262-.147l1.96 1.192a.338.338 0 0 1 0 .579l-1.958 1.163a.172.172 0 0 1-.264-.149zM5.242 6.337a1.109 1.109 0 1 1 1.11-1.109 1.111 1.111 0 0 1-1.11 1.109zm0-1.469a.359.359 0 1 0 .359.359.36.36 0 0 0-.359-.358zm0 6.982a1.109 1.109 0 1 1 1.109-1.109 1.111 1.111 0 0 1-1.109 1.109zm0-1.469a.359.359 0 1 0 .359.359.36.36 0 0 0-.359-.359z"/></g></svg>

<svg xmlns="http://www.w3.org/2000/svg" viewBox="0 0 16 16"><defs><style>.cls-1{fill:#010101;}</style></defs><title>merge-circle-outline</title><g id="Layer_1" data-name="Layer 1"><path class="cls-1" d="M8,.139a7.824,7.824,0,1,0,7.824,7.824A7.833,7.833,0,0,0,8,.139ZM8,15.2a7.235,7.235,0,1,1,7.235-7.235A7.243,7.243,0,0,1,8,15.2Z"/><path class="cls-1" d="M9.237,8.359a.375.375,0,0,1-.315-.172L7.251,5.6H5.977a.375.375,0,0,1,0-.75H7.455a.374.374,0,0,1,.315.172L9.551,7.781a.375.375,0,0,1-.314.578Z"/><path class="cls-1" d="M7.455,11.116H5.977a.375.375,0,1,1,0-.75H7.251l1.67-2.585a.375.375,0,1,1,.63.406L7.77,10.944A.374.374,0,0,1,7.455,11.116Z"/><path class="cls-1" d="M10.723,8.464H9.236a.48.48,0,0,1,0-.961h1.487a.48.48,0,1,1,0,.961Z"/><path class="cls-1" d="M10.5,9.312V6.674a.172.172,0,0,1,.262-.147l1.96,1.192a.338.338,0,0,1,0,.579L10.764,9.461A.172.172,0,0,1,10.5,9.312Z"/><path class="cls-1" d="M5.242,6.337A1.109,1.109,0,1,1,6.352,5.228,1.111,1.111,0,0,1,5.242,6.337Zm0-1.469a.359.359,0,1,0,.359.359A.36.36,0,0,0,5.242,4.869Z"/><path class="cls-1" d="M5.242,11.85a1.109,1.109,0,1,1,1.109-1.109A1.111,1.111,0,0,1,5.242,11.85Zm0-1.469a.359.359,0,1,0,.359.359A.36.36,0,0,0,5.242,10.381Z"/></g></svg>
